!!!COM: Palestrina, Giovanni Perluigi da
!!!OPR: Dum complerentur
!!!OTL: Credo
**kern	**kern	**kern	**kern	**kern	**kern
*Ibass	*Itenor	*Itenor	*Icalto	*Icalto	*Icant
!Bassus	!Tenor 2	!Tenor 1	!Altus 2	!Altus 1	!Cantus
*clefF4	*clefGv2	*clefGv2	*clefG2	*clefG2	*clefG2
*k[b-]	*k[b-]	*k[b-]	*k[b-]	*k[b-]	*k[b-]
*F:ion	*F:ion	*F:ion	*F:ion	*F:ion	*F:ion
*M4/2	*M4/2	*M4/2	*M4/2	*M4/2	*M4/2
=1	=1	=1	=1	=1	=1
0r	0f	0F	0r	0a	0cc
=2	=2	=2	=2	=2	=2
0r	1e	1c	0r	1g	1cc
.	2f	1F	.	1a	1cc
.	2a	.	.	.	.
=3	=3	=3	=3	=3	=3
0r	2g	2B-	0r	2b-	2dd
.	2.f	2B-	.	2b-	2dd
.	.	1c	.	1g	1cc
.	8e	.	.	.	.
.	8d	.	.	.	.
.	2e	.	.	.	.
=4	=4	=4	=4	=4	=4
0r	1f	2F	0r	1a	2cc
.	.	2f	.	.	2cc
.	2r	4f	.	1a	2.ff
.	.	4e	.	.	.
.	2f	4d	.	.	.
.	.	4c	.	.	4ee
=5	=5	=5	=5	=5	=5
0r	4f	1.B-	0r	2b-	1.dd
.	4e	.	.	.	.
.	4d	.	.	4B-	.
.	4c	.	.	4c	.
.	2B-	.	.	4d	.
.	.	.	.	4e	.
.	2c	2A	.	2f	2cc
=6	=6	=6	=6	=6	=6
0r	2d	1G	0r	1g	1b-
.	2e	.	.	.	.
.	1f	2F	.	2cc	2a
.	.	[2f	.	2cc	2a
=7	=7	=7	=7	=7	=7
0r	1c	2f]	0r	1cc	1g
.	.	2e	.	.	.
.	1F	[1f	.	1a	[1cc
=8	=8	=8	=8	=8	=8
1.F	1.c	1f]	1.a	2r	0cc]
.	.	.	.	1f	.
.	.	1r	.	.	.
2F	2c	.	2a	2f	.
=9	=9	=9	=9	=9	=9
2C	2c	0r	2g	2e	0r
2C	2c	.	2g	2e	.
1F	1c	.	1a	1f	.
=10	=10	=10	=10	=10	=10
2BB-	2d	0r	2b-	2f	0r
2BB-	2d	.	2b-	2f	.
2C	1c	.	1g	[1e	.
[2c	.	.	.	.	.
=11	=11	=11	=11	=11	=11
4c]	2r	0r	2.cc	1e]	0r
4B-	.	.	.	.	.
4A	2.c	.	.	.	.
4G	.	.	4b-	.	.
[1F	.	.	4a	2.cc	.
.	4B-	.	4g	.	.
.	4A	.	[2f	.	.
.	4G	.	.	4b-	.
=12	=12	=12	=12	=12	=12
2F]	2F	0r	2f]	2a	0r
2E	2G	.	2c	2g	.
2D	2A	.	2d	2f	.
2C	2c	.	2g	2e	.
=13	=13	=13	=13	=13	=13
2G	2c	0r	2.g	2d	0r
2G	2B	.	.	2d	.
.	.	.	4g	.	.
1C	1c	.	1e	1g	.
=14	=14	=14	=14	=14	=14
1.F	1.c	1.A	1.f	1.a	1.cc
2F	2c	2A	2f	2a	2cc
=15	=15	=15	=15	=15	=15
1F	1c	1A	1a	1cc	1ff
1C	2e	1c	2g	1cc	1ee
.	[2g	.	4G	.	.
.	.	.	4A	.	.
=16	=16	=16	=16	=16	=16
1.G	2g]	1.d	4B-	1.b-	1.dd
.	.	.	4c	.	.
.	2g	.	4d	.	.
.	.	.	4G	.	.
.	4G	.	2g	.	.
.	4A	.	.	.	.
2G	4B-	2d	2g	2b-	2dd
.	4c	.	.	.	.
=17	=17	=17	=17	=17	=17
1D	4d	1d	2.f	1.a	1dd
.	4e	.	.	.	.
.	1f	.	.	.	.
.	.	.	4g	.	.
[1F	.	[1A	1a	.	[1cc
.	4F	.	.	[2f	.
.	4G	.	.	.	.
=18	=18	=18	=18	=18	=18
1F]	4A	1A]	1f	4f]	1cc]
.	4B-	.	.	4g	.
.	2c	.	.	1a	.
1F	2F	1A	1f	.	1a
.	[2f	.	.	2cc	.
=19	=19	=19	=19	=19	=19
0BB-	4f]	0B-	2d	1b-	0dd
.	4e	.	.	.	.
.	2.d	.	4B-	.	.
.	.	.	4c	.	.
.	.	.	4d	1f	.
.	4c	.	4e	.	.
.	2B-	.	4f	.	.
.	.	.	4g	.	.
=20	=20	=20	=20	=20	=20
1F	1.A	1c	1a	2r	2cc
.	.	.	.	2.a	2.cc
1r	.	1r	1r	.	.
.	.	.	.	4f	4a
.	2G	.	.	2g	2b-
=21	=21	=21	=21	=21	=21
0r	1F	2r	1r	4a	4cc
.	.	.	.	4g	4b-
.	.	2.f	.	4f	4a
.	.	.	.	4e	4g
.	1r	.	2r	2d	2f
.	.	4d	.	.	.
.	.	2e	[2cc	2c	2g
=22	=22	=22	=22	=22	=22
0r	0r	2f	4cc]	1f	2a
.	.	.	4a	.	.
.	.	2d	2b-	.	4g
.	.	.	.	.	4f
.	.	2c	4cc	2e	2g
.	.	.	4b-	.	.
.	.	[2F	4a	4f	[2cc
.	.	.	4g	4g	.
=23	=23	=23	=23	=23	=23
0r	0r	2F]	2f	4a	2cc]
.	.	.	.	4g	.
.	.	1B-	2d	4f	1dd
.	.	.	.	4e	.
.	.	.	2.f	2d	.
.	.	2F	.	2a	[2cc
.	.	.	4e	.	.
=24	=24	=24	=24	=24	=24
1r	2r	1G	2d	1g	2cc]
.	1g	.	2d	.	2b
2r	.	1c	1e	2r	1cc
[2c	2a	.	.	[2e	.
=25	=25	=25	=25	=25	=25
2c]	2g	0r	0r	2e]	0r
2d	2.f	.	.	2f	.
1c	.	.	.	1g	.
.	8e	.	.	.	.
.	8d	.	.	.	.
.	2e	.	.	.	.
=26	=26	=26	=26	=26	=26
2A	4f	0r	0r	2a	0r
.	4e	.	.	.	.
2.B-	4d	.	.	4g	.
.	4c	.	.	4f	.
.	4d	.	.	4g	.
4A	4c	.	.	4f	.
4A	4c	.	.	[2f	.
8G	8B-	.	.	.	.
8F	8A	.	.	.	.
=27	=27	=27	=27	=27	=27
1G	1B-	1g	1r	2f]	1r
.	.	.	.	2e	.
1F	1c	2a	2r	1f	2r
.	.	[2f	[2a	.	[2cc
=28	=28	=28	=28	=28	=28
0r	0r	4f]	2a]	0r	2cc]
.	.	4f	.	.	.
.	.	2d	2b-	.	2dd
.	.	[1f	2.a	.	2.cc
.	.	.	4a	.	4cc
=29	=29	=29	=29	=29	=29
0r	0r	2f]	2f	0r	2a
.	.	2e-	2.g	.	2.b-
.	.	1d	.	.	.
.	.	.	4f	.	4a
.	.	.	[2f	.	4a
.	.	.	.	.	8g
.	.	.	.	.	8f
=30	=30	=30	=30	=30	=30
1r	0r	1c	2f]	2r	2g
.	.	.	2e	2g	2g
2r	.	[1F	1f	[1a	[1f
2c	.	.	.	.	.
=31	=31	=31	=31	=31	=31
2c	2r	1F]	2r	2a]	1f]
2d	2f	.	2f	2a	.
1c	2f	1r	2g	1cc	1r
.	2e	.	2g	.	.
=32	=32	=32	=32	=32	=32
1F	1.f	2r	1a	2cc	2r
.	.	2F	.	2a	2cc
1r	.	2F	[1f	2a	2cc
.	2d	2B-	.	2b-	2dd
=33	=33	=33	=33	=33	=33
1r	1r	2.F	1f]	2.a	2.cc
.	.	4F	.	4a	4cc
2r	2r	1F	2r	2f	1a
[2F	[2c	.	[2a	[2f	.
=34	=34	=34	=34	=34	=34
2F]	2c]	0r	2a]	2f]	0r
2BB-	2d	.	2b-	2f	.
1F	1c	.	1a	1f	.
=35	=35	=35	=35	=35	=35
2C	1c	1r	1g	2e	2r
2c	.	.	.	2g	2ee
2c	1r	2r	1cc	2g	2ee
2F	.	2c	.	2a	2ff
=36	=36	=36	=36	=36	=36
1.c	0r	4c	2cc	2.g	2.ee
.	.	4d	.	.	.
.	.	4e	4c	.	.
.	.	4f	4d	4f	4dd
.	.	1g	4e	2e	2cc
.	.	.	4c	.	.
2B-	.	.	[2g	2d	[2dd
=37	=37	=37	=37	=37	=37
1A	0r	1c	2g]	2e	4dd]
.	.	.	.	.	4cc
.	.	.	2f	2c	1cc
1G	.	1d	2.g	2r	.
.	.	.	.	[2g	2b
.	.	.	4f	.	.
=38	=38	=38	=38	=38	=38
1C	2r	1c	2e	4g]	2cc
.	.	.	.	4f	.
.	1c	.	1g	4e	1cc
.	.	.	.	4d	.
1r	.	1r	.	2e	.
.	2G	.	2g	2d	2b-
=39	=39	=39	=39	=39	=39
0r	2A	0r	2f	2.c	2a
.	2c	.	2e	.	2g
.	.	.	.	4c	.
.	1F	.	1f	1c	1a
=40	=40	=40	=40	=40	=40
1r	1c	1r	1e	2c	1g
.	.	.	.	2.cc	.
[1F	[1c	[1f	1r	.	2.a
.	.	.	.	4b-	.
.	.	.	.	[2a	.
.	.	.	.	.	4b-
=41	=41	=41	=41	=41	=41
2F]	2c]	2f]	0r	2a]	1cc
2C	2c	2e	.	2g	.
2D	2A	2d	.	2f	1r
2F	2A	2c	.	2f	.
=42	=42	=42	=42	=42	=42
2BB-	2B-	2d	0r	2f	0r
2F	2A	2c	.	2f	.
1G	4d	1B-	.	1b-	.
.	4c	.	.	.	.
.	4d	.	.	.	.
.	4e	.	.	.	.
=43	=43	=43	=43	=43	=43
0F	1f	1c	2r	1.a	1r
.	.	.	2.cc	.	.
.	1c	[1f	.	.	2r
.	.	.	4b-	.	.
.	.	.	[2a	[2cc	[2ff
=44	=44	=44	=44	=44	=44
0r	0r	2f]	2a]	2cc]	2ff]
.	.	2c	2g	2cc	2ee
.	.	2d	2.f	2a	2dd
.	.	2f	.	2a	2cc
.	.	.	4f	.	.
=45	=45	=45	=45	=45	=45
0r	0r	1B-	2f	1b-	1dd
.	.	.	2g	.	.
.	.	2c	2e	2g	2cc
.	.	2d	[2f	2f	2b-
=46	=46	=46	=46	=46	=46
2r	2r	1c	2f]	2g	1cc
1c	1g	.	4e	1cc	.
.	.	.	4d	.	.
.	.	1r	4e	.	1r
.	.	.	4c	.	.
2G	2g	.	2d	2b-	.
=47	=47	=47	=47	=47	=47
2A	2e	2r	0c	2a	0r
2c	2e	2c	.	2g	.
1F	1f	4A	.	1a	.
.	.	4B-	.	.	.
.	.	4c	.	.	.
.	.	4A	.	.	.
=48	=48	=48	=48	=48	=48
2G	2d	2B	0r	2g	0r
2A	2c	1c	.	2f#	.
1G	1d	.	.	[1g	.
.	.	2B	.	.	.
=49	=49	=49	=49	=49	=49
0r	1e	2c	0r	2g]	2r
.	.	2A	.	2cc	2cc
.	1r	2G	.	2b-	2dd
.	.	2F	.	2a	2ff
=50	=50	=50	=50	=50	=50
0r	2r	1c	1r	1g	4ee
.	.	.	.	.	4dd
.	2c	.	.	.	4cc
.	.	.	.	.	4b-
.	2d	1r	2r	2f	2.a
.	2f	.	2f	2d	.
.	.	.	.	.	4b-
=51	=51	=51	=51	=51	=51
0r	2e	0r	2g	2c	2cc
.	4d	.	2b-	4B-	2.dd
.	4e	.	.	4c	.
.	4f	.	4a	4d	.
.	4g	.	4g	4e	4cc
.	4a	.	4f	4f	[2a
.	4g	.	4e	4g	.
=52	=52	=52	=52	=52	=52
0r	2f	0r	2d	4a	4a]
.	.	.	.	4f	4b-
.	2e	.	4c	2.g	1cc
.	.	.	8d	.	.
.	.	.	8e	.	.
.	1d	.	2f	.	.
.	.	.	.	4f	.
.	.	.	2f	[2f	2b
=53	=53	=53	=53	=53	=53
2r	1c	2r	2g	4f]	1cc
.	.	.	.	8e	.
.	.	.	.	8d	.
2A	.	2c	2cc	4e	.
.	.	.	.	4f	.
2G	1r	2d	2b-	2g	1r
2F	.	2f	2a	[2c	.
=54	=54	=54	=54	=54	=54
4c	0r	4e	2g	4c]	0r
4B-	.	4d	.	4d	.
4A	.	4c	2a	2e	.
4G	.	4B-	.	.	.
2F	.	2A	2.cc	2f	.
2E	.	2G	.	2g	.
.	.	.	4b-	.	.
=55	=55	=55	=55	=55	=55
1F	1r	2A	4a	1f	2r
.	.	.	4g	.	.
.	.	2.c	2a	.	2cc
1D	2r	.	1f	1r	2dd
.	.	4B	.	.	.
.	2d	4B	.	.	2ff
.	.	4A	.	.	.
=56	=56	=56	=56	=56	=56
1C	2e	1c	1g	2r	4ee
.	.	.	.	.	4dd
.	2g	.	.	2c	4cc
.	.	.	.	.	4b-
1r	2f	2r	1r	2d	2a
.	2e	2g	.	2e	2g
=57	=57	=57	=57	=57	=57
0r	2d	2f	0r	2f	2a
.	4c	2e	.	2g	2.cc
.	8d	.	.	.	.
.	8e	.	.	.	.
.	1f	1d	.	2a	.
.	.	.	.	.	4b
.	.	.	.	4g	4b
.	.	.	.	4f	8a
.	.	.	.	.	8b
=58	=58	=58	=58	=58	=58
0r	0g	2c	0r	2e	2cc
.	.	2B	.	2d	2dd
.	.	1c	.	1e	[1cc
=59	=59	=59	=59	=59	=59
2r	1f	2F	2r	1a	1cc]
2F	.	2f	2a	.	.
2G	1r	2e	2g	2r	1r
2B-	.	2d	2f	2d	.
=60	=60	=60	=60	=60	=60
4A	0r	1c	4cc	2e	1r
4G	.	.	4b-	.	.
4F	.	.	4a	1f	.
4E	.	.	4g	.	.
2D	.	2d	2f	.	2r
2C	.	2e	2e	2g	2cc
=61	=61	=61	=61	=61	=61
1BB-	2r	1f	1d	1b-	2dd
.	2d	.	.	.	2ff
1C	2e	2r	[1c	4g	4ee
.	.	.	.	4f	4dd
.	2g	[2c	.	4e	4cc
.	.	.	.	4d	4b-
=62	=62	=62	=62	=62	=62
0F	2f	4c]	1c_	2c	4a
.	.	4B-	.	.	4g
.	4c	2A	.	2f	2f
.	4B-	.	.	.	.
.	4A	4F	1c_	1f	1a
.	4G	4G	.	.	.
.	2F	4A	.	.	.
.	.	4B-	.	.	.
=63	=63	=63	=63	=63	=63
1C	1G	2c	1c]	1e	1g
.	.	2G	.	.	.
1r	1r	1r	1r	1r	1r
=64	=64	=64	=64	=64	=64
0r	0r	0c	0e	0g	0cc
=65	=65	=65	=65	=65	=65
0r	0r	1G	1d	1g	1b
.	.	1c	1e	1g	1cc
=66	=66	=66	=66	=66	=66
0r	0r	1.F	2.f	2.a	4cc
.	.	.	.	.	4b-
.	.	.	.	.	4a
.	.	.	4g	4b-	4g
.	.	.	2a	2cc	2f
.	.	2F	2a	2cc	2ff
=67	=67	=67	=67	=67	=67
1r	1r	1c	1g	1cc	1ee
1F	1f	1c	1a	2r	1ff
.	.	.	.	2c	.
=68	=68	=68	=68	=68	=68
1.BB-	1.f	1.B-	1.b-	1.d	1.dd
2BB-	2f	2B-	2b-	2d	2dd
=69	=69	=69	=69	=69	=69
1BB-	2f	1B-	1b-	1d	1dd
.	4F	.	.	.	.
.	4G	.	.	.	.
1F	4A	2.c	1a	1f	1cc
.	4B-	.	.	.	.
.	2c	.	.	.	.
.	.	4d	.	.	.
=70	=70	=70	=70	=70	=70
0C	4c	4e	1g	0e	1cc
.	4d	4f	.	.	.
.	4e	2g	.	.	.
.	4f	.	.	.	.
.	2g	2c	2r	.	2r
.	[2e	[2c	[2g	.	[2cc
=71	=71	=71	=71	=71	=71
0r	2e]	2c]	2g]	0r	2cc]
.	2e	2c	2g	.	2cc
.	1f	1B-	1b-	.	1dd
=72	=72	=72	=72	=72	=72
0r	2f	1F	1a	0r	1cc
.	2f	.	.	.	.
.	2d	1G	1g	.	1b-
.	[2g	.	.	.	.
=73	=73	=73	=73	=73	=73
0r	4g]	1A	1cc	1r	1a
.	4f	.	.	.	.
.	1f	.	.	.	.
.	.	1c	1cc	2r	1g
.	4e	.	.	2g	.
.	4d	.	.	.	.
=74	=74	=74	=74	=74	=74
0C	1e	0c	0g	4g	0cc
.	.	.	.	4f	.
.	.	.	.	4e	.
.	.	.	.	4d	.
.	2r	.	.	4e	.
.	.	.	.	4d	.
.	2e	.	.	4c	.
.	.	.	.	4B-	.
=75	=75	=75	=75	=75	=75
1F	1f	1c	1a	2A	1cc
.	.	.	.	4c	.
.	.	.	.	4d	.
1C	1e	2c	2g	4e	1cc
.	.	.	.	4f	.
.	.	[2G	[2cc	2g	.
=76	=76	=76	=76	=76	=76
1G	1d	2G]	2cc]	2.g	1.dd
.	.	2g	4b	.	.
.	.	.	4a	8f	.
.	.	.	.	8e	.
1G	1d	2.g	2b	2d	.
.	.	.	2b	2g	2dd
.	.	4f	.	.	.
=77	=77	=77	=77	=77	=77
0C	0c	0e	0cc	0g	0ee
*	*	*	*	*-	*-
!! Crucifixus
*Ibass	*Itenor	*Icalto	*Icalto
!Bassus	!Tenor	!Altus 2	!Altus 1
*clefF4	*clefGv2	*clefG2	*clefG2
*k[b-]	*k[b-]	*k[b-]	*k[b-]
*F:ion	*F:ion	*F:ion	*F:ion
*M4/2	*M4/2	*M4/2	*M4/2
=78	=78	=78	=78
0C	0c	0g	0e
=79	=79	=79	=79
1G	1B	1g	1d
1F	[1c	1a	1f
=80	=80	=80	=80
2C	1c]	1g	1e
2.c	.	.	.
.	1F	2.cc	2r
4B-	.	.	.
4A	.	.	[2f
4G	.	4b-	.
=81	=81	=81	=81
2F	2.c	2a	2f]
2C	.	2g	2e
.	4B-	.	.
2D	2A	2f	2d
2E	2G	2e	[2c
=82	=82	=82	=82
2F	2A	1d	2c]
2G	2G	.	2B
1C	2r	1e	1c
.	2G	.	.
=83	=83	=83	=83
2r	2.c	2r	2r
2C	.	2g	2e
.	4c	.	.
2.F	1c	2.a	2.f
4F	.	4a	4f
=84	=84	=84	=84
1F	2r	1a	1f
.	2F	.	.
2r	2.c	2r	2r
2C	.	2e	2g
.	4c	.	.
=85	=85	=85	=85
2.F	1.c	2.f	2.a
4F	.	4f	4a
1F	.	[1f	1a
.	2A	.	.
=86	=86	=86	=86
1D	2.d	1f]	1a
.	4c	.	.
1G	4B	1d	2.g
.	4A	.	.
.	2B	.	.
.	.	.	4f
=87	=87	=87	=87
[0C	2c	2.g	4e
.	.	.	4d
.	2G	.	2.e
.	.	4f	.
.	2.c	4e	.
.	.	4d	4f
.	.	2e	[2g
.	4B-	.	.
=88	=88	=88	=88
0C]	2A	1c	2g]
.	4G	.	1f
.	4F	.	.
.	1G	2r	.
.	.	2c	2e
=89	=89	=89	=89
1F	1A	2c	1f
.	.	2.f	.
2F	1r	.	2r
.	.	4e	.
[2B-	.	4d	2f
.	.	4c	.
=90	=90	=90	=90
4B-]	0r	1d	2f
4A	.	.	.
4G	.	.	1b-
4F	.	.	.
2G	.	2e	.
2F	.	2f	2a
=91	=91	=91	=91
2C	1r	2e	2g
2D	.	2.f	2f
1C	2r	.	1g
.	.	8e	.
.	.	8d	.
.	2c	2e	.
=92	=92	=92	=92
2.F	2c	1A	2r
.	1f	.	2c
4E	.	.	.
2D	.	2A	2d
2C	2e	2c	[2g
=93	=93	=93	=93
2G	2d	2B	2g]
2A	2c	2.c	2f#
1G	2d	.	2.g
.	.	8B	.
.	.	8A	.
.	2g	2B	.
.	.	.	4f
=94	=94	=94	=94
2r	2g	2c	4e
.	.	.	4d
2c	2f#	2A	2c
2c	2.g	1G	1d
2B	.	.	.
.	4f	.	.
=95	=95	=95	=95
4c	4e	0r	0r
4B-	4d	.	.
4A	4c	.	.
4G	4B-	.	.
4F	4A	.	.
4E	4G	.	.
4E	[2c	.	.
8D	.	.	.
8C	.	.	.
=96	=96	=96	=96
1D	2c]	2r	1r
.	2B	2f	.
1C	2c	2f	2r
.	2c	2e	2cc
=97	=97	=97	=97
0r	2A	4f	2cc
.	.	4e	.
.	2G	4g	2b
.	.	4f	.
.	[1A	4e	4cc
.	.	4d	4b-
.	.	4c	4a
.	.	4B-	4g
=98	=98	=98	=98
0r	1A]	4A	4f
.	.	4B-	4e
.	.	1c	4e
.	.	.	8d
.	.	.	8c
.	1G	.	1d
.	.	2B-	.
=99	=99	=99	=99
2r	2.g	1c	1e
2.c	.	.	.
.	4f	.	.
.	2e	2.g	1r
4c	.	.	.
2B	2d	.	.
.	.	4g	.
=100	=100	=100	=100
4c	4e	2g	0r
4B-	4d	.	.
4A	4c	2.a	.
4G	4B-	.	.
4F	4A	.	.
4E	4B	4g	.
4E	2c	4g	.
8D	.	8f	.
8C	.	8e	.
=101	=101	=101	=101
1D	2c	2.f	2r
.	2B	.	2f
.	.	4g	.
2C	[1c	2a	2f
2c	.	2g	2e
=102	=102	=102	=102
1A	1c]	2r	4f
.	.	.	4e
.	.	2cc	4e
.	.	.	8d
.	.	.	8c
2G	1r	2cc	1d
2G	.	2b	.
=103	=103	=103	=103
4A	2r	4cc	1c
4G	.	4b-	.
4F	2f	4a	.
4E	.	4g	.
2D	2f	4a	2r
.	.	4f	.
2C	2e	4g	2c
.	.	4a	.
=104	=104	=104	=104
0BB-	4f	4b-	0d
.	4e	4a	.
.	4d	4g	.
.	4c	4f	.
.	2B-	4g	.
.	.	4f	.
.	2A	[2f	.
=105	=105	=105	=105
1C	1G	2f]	1.c
.	.	2e	.
1F	1A	2f	.
.	.	2c	2f
=106	=106	=106	=106
0r	0r	2d	2f
.	.	2e	2g
.	.	2f	2a
.	.	2g	2b-
=107	=107	=107	=107
2r	0r	1.a	1.cc
2F	.	.	.
2F	.	.	.
2G	.	2g	2b-
=108	=108	=108	=108
2A	0r	1f	1a
2B-	.	.	.
1c	.	[1e	[1g
=109	=109	=109	=109
2c	2r	1e]	2g]
2A	2c	.	2cc
2G	2d	1r	2b-
2F	2f	.	2a
=110	=110	=110	=110
1.c	4e	0r	4g
.	4d	.	4f
.	4c	.	4e
.	4B-	.	4d
.	2A	.	2c
2B-	2G	.	2d
=111	=111	=111	=111
2A	2c	0r	2e
4G	2.d	.	2.f
4F	.	.	.
1A	.	.	.
.	4c	.	4e
.	[2c	.	4e
.	.	.	8d
.	.	.	8c
=112	=112	=112	=112
1G	2c]	1r	1d
.	2B	.	.
1C	2c	2r	1e
.	2c	2cc	.
=113	=113	=113	=113
2r	2d	2b-	0r
2F	2f	2a	.
2G	2e	2g	.
2B-	2d	2f	.
=114	=114	=114	=114
4A	4c	1a	0r
4G	4B-	.	.
4F	4A	.	.
4E	4G	.	.
2D	2F	2a	.
2E	2G	[2g	.
=115	=115	=115	=115
2F	4A	4g]	2r
.	4B-	4f	.
2A	4c	1f	2f
.	4A	.	.
1G	1B-	.	2g
.	.	2e	2b-
=116	=116	=116	=116
1F	1c	1f	4a
.	.	.	4g
.	.	.	4f
.	.	.	4e
1r	1f	2r	2d
.	.	2f	2d
=117	=117	=117	=117
1r	2e	2g	2c
.	2d	2b-	2B-
1F	1c	4a	1f
.	.	4g	.
.	.	4f	.
.	.	4e	.
=118	=118	=118	=118
2G	2B-	1d	0r
2B-	2d	.	.
4A	4c	2e	.
4G	4B-	.	.
4F	4A	[2f	.
4E	4G	.	.
=119	=119	=119	=119
1D	2.A	4f]	1r
.	.	4e	.
.	.	2.d	.
.	4B-	.	.
2E	2G	.	2r
.	.	4c	.
2F	2A	[2c	2c
=120	=120	=120	=120
1D	1F	2c]	2d
.	.	2B	2f
1C	1G	2c	4e
.	.	.	4d
.	.	2g	4c
.	.	.	4B-
=121	=121	=121	=121
1F	2r	2a	2A
.	2c	2cc	2A
2r	2d	2b-	2G
2F	2f	[2a	2c
=122	=122	=122	=122
2G	4e	4a]	1B-
.	4d	4g	.
2B-	2.d	1g	.
2A	.	.	1c
.	4c	.	.
2A	[2c	2f#	.
=123	=123	=123	=123
1G	2c]	2g	2d
.	2B	1g	2d
2r	1c	.	2e
[2c	.	2a	[2e
=124	=124	=124	=124
2c]	0r	2g	2e]
2d	.	1f	2f
1c	.	.	1g
.	.	2e	.
=125	=125	=125	=125
2A	1r	2c	2a
2B-	.	4d	2f
.	.	4c	.
2B-	2r	4d	2g
.	.	4e	.
2A	2c	[2f	2a
=126	=126	=126	=126
1G	2d	2f]	1b-
.	4B-	2e	.
.	4c	.	.
1F	4d	1f	[1a
.	4e	.	.
.	[2f	.	.
=127	=127	=127	=127
2r	2f]	1c	2a]
1c	4e	.	4g
.	4d	.	4f
.	2e	1r	2g
2d	2f	.	[2f
=128	=128	=128	=128
1.c	1g	2r	2f]
.	.	1g	4e
.	.	.	4d
.	1r	.	2e
2A	.	2a	2c
=129	=129	=129	=129
2B-	2r	1g	2d
1c	1g	.	2e
.	.	2e	1c
2F	2a	[2f	.
=130	=130	=130	=130
1.c	1g	2f]	0r
.	.	2e	.
.	2e	2c	.
2B-	2f	[2d	.
=131	=131	=131	=131
2.A	2f	4d]	1r
.	.	4c	.
.	2e	1c	.
4G	.	.	.
2F	1d	.	2r
2G	.	2B	[2g
=132	=132	=132	=132
2C	2e	2c	2g]
2F	2f	2cc	2a
1G	1d	2cc	1g
.	.	2b-	.
=133	=133	=133	=133
1A	1c	1a	2e
.	.	.	2f
2B-	2d	1g	2f
2c	[2c	.	2e
=134	=134	=134	=134
0G	2c]	[0g	0d
.	4B	.	.
.	4A	.	.
.	1B	.	.
=135	=135	=135	=135
0C	0c	0g]	0e
*-	*-	*-	*-
!! Et in Spiritum
**kern	**kern	**kern	**kern	**kern	**kern
*Ibass	*Itenor	*Itenor	*Icalto	*Icalto	*Icant
!Bassus	!Tenor 2	!Tenor 1	!Altus 2	!Altus 1	!Cantus
*clefF4	*clefGv2	*clefGv2	*clefG2	*clefG2	*clefG2
*k[b-]	*k[b-]	*k[b-]	*k[b-]	*k[b-]	*k[b-]
*F:ion	*F:ion	*F:ion	*F:ion	*F:ion	*F:ion
*M4/2	*M4/2	*M4/2	*M4/2	*M4/2	*M4/2
=136	=136	=136	=136	=136	=136
1r	0r	1c	0r	1r	1r
1F	.	2c	.	1a	1cc
.	.	[2f	.	.	.
=137	=137	=137	=137	=137	=137
2F	0r	4f]	0r	2a	2cc
.	.	4f	.	.	.
2.B-	.	2d	.	2.f	2.dd
.	.	2B-	.	.	.
4B-	.	.	.	4f	4dd
2A	.	2c	.	2f	2cc
=138	=138	=138	=138	=138	=138
2G	0r	4d	0r	2g	2b-
.	.	4e	.	.	.
2F	.	1f	.	2a	2a
2G	.	.	.	2b-	2g
2G	.	2e	.	2b-	2g
=139	=139	=139	=139	=139	=139
0F	1c	0f	2r	1a	[0cc
.	.	.	2a	.	.
.	2c	.	2a	1r	.
.	[2f	.	[2a	.	.
=140	=140	=140	=140	=140	=140
0r	4f]	0r	4a]	2.c	1cc]
.	4f	.	4a	.	.
.	2e	.	2g	.	.
.	.	.	.	8d	.
.	.	.	.	8e	.
.	2d	.	2a	2f	2dd
.	2c	.	2cc	2g	2ee
=141	=141	=141	=141	=141	=141
1r	2d	1r	2cc	2f	2ff
.	2d	.	2b	2f	2ff
2r	2c	2r	2cc	1g	1ee
[2c	[2e	[2g	[2cc	.	.
=142	=142	=142	=142	=142	=142
2c]	2e]	2g]	2cc]	0r	0r
2G	2d	2g	2b-	.	.
2A	2.c	2f	2a	.	.
2c	.	2e	2g	.	.
.	4c	.	.	.	.
=143	=143	=143	=143	=143	=143
1F	1c	1f	1a	1r	0r
[1C	2c	[1e	1g	2r	.
.	[2c	.	.	[2g	.
=144	=144	=144	=144	=144	=144
1C]	2c]	1e]	0r	2g]	1cc
.	2c	.	.	2g	.
1r	2.f	1r	.	[1a	2cc
.	.	.	.	.	[2ff
.	4e	.	.	.	.
=145	=145	=145	=145	=145	=145
0r	2d	0r	1r	2a]	2ff]
.	2c	.	.	2a	2ee
.	2B-	.	1f	2b-	2dd
.	2F	.	.	2a	2cc
=146	=146	=146	=146	=146	=146
0r	2.B-	0r	2f	1b-	1.dd
.	.	.	1b-	.	.
.	4c	.	.	.	.
.	4d	.	.	2.f	.
.	4e	.	.	.	.
.	2f	.	2a	.	[2cc
.	.	.	.	8e	.
.	.	.	.	8d	.
=147	=147	=147	=147	=147	=147
0r	2c	0r	2g	2e	2cc]
.	2d	.	2f	2f	2b
.	[1c	.	2g	2e	1cc
.	.	.	[2f	2a	.
=148	=148	=148	=148	=148	=148
1r	1c]	2r	2f]	1g	1cc
.	.	1g	2e	.	.
2r	2B-	.	2d	1r	1r
[2c	2A	2f	2c	.	.
=149	=149	=149	=149	=149	=149
2c]	1G	2.g	1d	2r	0r
2B	.	.	.	2g	.
.	.	4f	.	.	.
4c	1r	4e	2r	2g	.
4B-	.	4d	.	.	.
4A	.	4c	2e	[2a	.
4G	.	4B-	.	.	.
=150	=150	=150	=150	=150	=150
4F	0r	4A	2f	4a]	1r
4E	.	4B	.	4g	.
4D	.	1c	1a	4f	.
4C	.	.	.	4e	.
1D	.	.	.	2f	2r
.	.	2B	4g	2d	2ff
.	.	.	4f	.	.
=151	=151	=151	=151	=151	=151
1C	2r	1c	2a	0r	2ff
.	2c	.	2g	.	2ee
1r	2d	1r	2f	.	4ff
.	.	.	.	.	4ee
.	2B-	.	[2g	.	4dd
.	.	.	.	.	4cc
=152	=152	=152	=152	=152	=152
0r	1d	0r	4g]	0r	4b-
.	.	.	4f	.	4a
.	.	.	1f	.	4g
.	.	.	.	.	4f
.	1c	.	.	.	1g
.	.	.	2e	.	.
=153	=153	=153	=153	=153	=153
1.F	2.A	2r	2f	1.a	1f
.	.	1f	1cc	.	.
.	4B-	.	.	.	.
.	2c	.	.	.	1r
2C	2c	2e	2cc	2g	.
=154	=154	=154	=154	=154	=154
2D	2F	2d	2a	2f	0r
2F	2A	2c	2a	2f	.
[1BB-	[1B-	[1d	[1f	2d	.
.	.	.	.	4B-	.
.	.	.	.	4c	.
=155	=155	=155	=155	=155	=155
1BB-]	1B-]	1d]	1f]	4d	0r
.	.	.	.	4e	.
.	.	.	.	4f	.
.	.	.	.	4g	.
1F	1A	1c	1f	4a	.
.	.	.	.	4b-	.
.	.	.	.	2cc	.
=156	=156	=156	=156	=156	=156
0r	1B-	1f	0r	1b-	1dd
.	2B-	2f	.	2b-	2dd
.	2F	2f	.	2a	2cc
=157	=157	=157	=157	=157	=157
0r	2G	2d	0r	2g	2b-
.	2B-	2d	.	2f	2b-
.	1E-	1e-	.	1g	1b-
=158	=158	=158	=158	=158	=158
2r	1F	2c	2r	2f	2a
2F	.	2c	2a	2f	2cc
2F	2r	2c	2a	2f	2cc
[2BB-	2f	[2B-	[2b-	[2d	[2dd
=159	=159	=159	=159	=159	=159
2BB-]	2f	2B-]	2b-]	2d]	2dd]
2BB-	2.d	2B-	2b-	2f	2dd
1BB-	.	2B-	1b-	1f	1dd
.	4d	.	.	.	.
.	2d	4F	.	.	.
.	.	4G	.	.	.
=160	=160	=160	=160	=160	=160
1F	1f	4A	1a	1c	1cc
.	.	4B-	.	.	.
.	.	4c	.	.	.
.	.	4d	.	.	.
1C	1e	4e	1g	2c	1cc
.	.	4f	.	.	.
.	.	[2g	.	[2cc	.
=161	=161	=161	=161	=161	=161
0G	0d	2g]	2.g	2cc]	0dd
.	.	2d	.	4b	.
.	.	.	8f	4a	.
.	.	.	8e	.	.
.	.	1g	2d	1b	.
.	.	.	[2g	.	.
=162	=162	=162	=162	=162	=162
1C	1c	0e	4g]	1cc	1ee
.	.	.	4f	.	.
.	.	.	4e	.	.
.	.	.	4d	.	.
1r	2r	.	1c	2r	2r
.	2A	.	.	2cc	2cc
=163	=163	=163	=163	=163	=163
0r	2G	0r	1r	2b-	2dd
.	2F	.	.	2a	2ff
.	4c	.	2r	2g	4ee
.	4B-	.	.	.	4dd
.	4A	.	2e	[2a	4cc
.	4G	.	.	.	4b-
=164	=164	=164	=164	=164	=164
0r	1F	0r	2f	4a]	1a
.	.	.	.	4g	.
.	.	.	2a	4f	.
.	.	.	.	4e	.
.	2G	.	4g	2d	2b-
.	.	.	4f	.	.
.	[2A	.	4e	2c	[2cc
.	.	.	4d	.	.
=165	=165	=165	=165	=165	=165
0r	2A]	0r	2c	1.f	2cc]
.	1B-	.	2f	.	1dd
.	.	.	2d	.	.
.	2d	.	[2f	2f	2b-
=166	=166	=166	=166	=166	=166
1r	0c	1r	2f]	1g	0cc
.	.	.	2e	.	.
1A	.	2r	2e	1a	.
.	.	2c	2cc	.	.
=167	=167	=167	=167	=167	=167
2G	0r	2d	2b-	1r	0r
2F	.	2f	2a	.	.
4c	.	4e	2g	2r	.
4B-	.	4d	.	.	.
4A	.	4c	2a	2e	.
4G	.	4B-	.	.	.
=168	=168	=168	=168	=168	=168
2F	0r	2A	4a	2f	0r
.	.	.	4g	.	.
2F	.	2A	4f	2a	.
.	.	.	4e	.	.
1G	.	1B	2d	4g	.
.	.	.	.	4f	.
.	.	.	[2g	4e	.
.	.	.	.	4d	.
=169	=169	=169	=169	=169	=169
1A	0r	2r	4g]	2c	0r
.	.	.	8f	.	.
.	.	.	8e	.	.
.	.	1c	2f	2c	.
2.G	.	.	[1g	2e-	.
.	.	2B-	.	[2d	.
4F	.	.	.	.	.
=170	=170	=170	=170	=170	=170
2E	1r	2G	2g]	4d]	2r
.	.	.	.	4c	.
2F	.	1A	2f	1c	2cc
1D	2r	.	1f	.	2dd
.	2d	4G	.	2B	2ff
.	.	4F	.	.	.
=171	=171	=171	=171	=171	=171
1C	2e	2G	0r	1c	4ee
.	.	.	.	.	4dd
.	2g	2c	.	.	4cc
.	.	.	.	.	4b-
1r	2.f	2d	.	1r	2.a
.	.	2f	.	.	.
.	8e	.	.	.	4b-
.	8d	.	.	.	.
=172	=172	=172	=172	=172	=172
0r	2c	4e	1r	1g	0cc
.	.	4d	.	.	.
.	2e	4c	.	.	.
.	.	4B-	.	.	.
.	2e	2A	1c	2a	.
.	2f	2A	.	2cc	.
=173	=173	=173	=173	=173	=173
0r	2g	2G	2d	2b-	2r
.	2c	2F	2f	2a	2cc
.	2r	2c	2e	2g	2cc
.	2d	2d	2f	2f	2b
=174	=174	=174	=174	=174	=174
0r	2e	0c	2g	4e	1cc
.	.	.	.	8f	.
.	.	.	.	8g	.
.	2f	.	1f	2a	.
.	2g	.	.	1g	1cc
.	[2c	.	2e	.	.
=175	=175	=175	=175	=175	=175
1.F	4c]	1.A	2f	1.a	1.cc
.	4B-	.	.	.	.
.	4A	.	1f	.	.
.	4G	.	.	.	.
.	2F	.	.	.	.
2F	[2c	2A	2f	2a	2cc
=176	=176	=176	=176	=176	=176
1F	2c]	1A	1f	1a	1ff
.	2c	.	.	.	.
1C	2e	1c	2g	2g	1ee
.	2e	.	[2g	[2cc	.
=177	=177	=177	=177	=177	=177
1.G	1g	1d	2g]	2cc]	1.dd
.	.	.	2d	4b-	.
.	.	.	.	4a	.
.	1d	1G	1g	2b-	.
2G	.	.	.	2b-	2dd
=178	=178	=178	=178	=178	=178
1D	1d	1A	1f	1.a	1ff
1F	1c	1A	[1f	.	2ff
.	.	.	.	2cc	4ff
.	.	.	.	.	4ee
=179	=179	=179	=179	=179	=179
1BB-	1d	2B-	1f]	1b-	4dd
.	.	.	.	.	4cc
.	.	2F	.	.	2b-
1F	2c	2r	1f	[1a	[1cc
.	[2f	[2F	.	.	.
=180	=180	=180	=180	=180	=180
1r	2f]	2F]	2r	1a]	1cc]
.	2f	2F	1c	.	.
[1C	4e	[1c	.	2r	2r
.	4d	.	.	.	.
.	4e	.	2c	[2g	[2ee
.	4f	.	.	.	.
=181	=181	=181	=181	=181	=181
2C]	4g	1c]	0cc	2g]	2ee]
.	4f	.	.	.	.
2C	4e	.	.	2g	2ee
.	4d	.	.	.	.
[1F	[1c	2A	.	2.a	[1ff
.	.	[2A	.	.	.
.	.	.	.	4b-	.
=182	=182	=182	=182	=182	=182
1F]	1c]	2A]	1a	1cc	1ff]
.	.	2A	.	.	.
2BB-	1d	1B-	2r	2.b-	2dd
[2B-	.	.	[2d	.	[2dd
.	.	.	.	8a	.
.	.	.	.	8g	.
=183	=183	=183	=183	=183	=183
2B-]	1r	1F	4d]	1f	2dd]
.	.	.	4e	.	.
2A	.	.	2f	.	2cc
2B-	2r	2r	1B-	2r	2dd
2BB-	[2B-	2d	.	[2f	2b-
=184	=184	=184	=184	=184	=184
1F	2B-]	1c	1c	4f]	1cc
.	.	.	.	4g	.
.	2A	.	.	2a	.
2.BB-	2B-	2d	2d	1d	2b-
.	2B-	2B-	[2d	.	[2dd
4C	.	.	.	.	.
=185	=185	=185	=185	=185	=185
4D	2F	2B-	4d]	2f	2dd]
4E	.	.	4e	.	.
2F	2F	2A	2f	2f	1cc
2BB-	2f	2B-	1B-	[1f	.
2BB-	2d	2B-	.	.	[2b-
=186	=186	=186	=186	=186	=186
1F	1c	2c	1d	2f]	2b-]
.	.	2F	.	2c	2a
[1BB-	[1B-	2r	2.d	1d	1b-
.	.	2f	.	.	.
.	.	.	4c	.	.
=187	=187	=187	=187	=187	=187
0BB-]	0B-]	4f	4B-	2.d	2r
.	.	4e	4A	.	.
.	.	4d	2G	.	2ff
.	.	4c	.	4e	.
.	.	2d	2r	1f	4ff
.	.	.	.	.	4ee
.	.	[2B-	2b-	.	4dd
.	.	.	.	.	4cc
=188	=188	=188	=188	=188	=188
0r	0r	2B-]	4b-	0r	2dd
.	.	.	4a	.	.
.	.	2e-	4g	.	1b-
.	.	.	4f	.	.
.	.	4e-	2g	.	.
.	.	4d	.	.	.
.	.	4c	[2a	.	2cc
.	.	4B-	.	.	.
=189	=189	=189	=189	=189	=189
0r	0r	2c	4a]	1r	4cc
.	.	.	4g	.	4b-
.	.	2d	4f	.	4a
.	.	.	4e	.	4g
.	.	4d	1f	2r	2a
.	.	4c	.	.	.
.	.	4B-	.	2b-	2dd
.	.	4A	.	.	.
=190	=190	=190	=190	=190	=190
0r	0r	1.G	1g	4b-	4dd
.	.	.	.	4a	4cc
.	.	.	.	4g	4b-
.	.	.	.	4f	4a
.	.	.	2d	2g	2b-
.	.	2F	2f	2a	2cc
=191	=191	=191	=191	=191	=191
0r	0r	2c	2e	4a	4cc
.	.	.	.	4g	4b-
.	.	1d	2f	4f	4a
.	.	.	.	4e	4g
.	.	.	2d	2f	2a
.	.	2G	2d	[2g	2b-
=192	=192	=192	=192	=192	=192
1r	0r	2.A	1c	2g]	1a
.	.	.	.	1f	.
.	.	4B-	.	.	.
2r	.	1c	2cc	.	1g
2c	.	.	4cc	2e	.
.	.	.	4b-	.	.
=193	=193	=193	=193	=193	=193
4c	1r	0F	4a	2f	2.a
4B-	.	.	4g	.	.
4A	.	.	2a	2cc	.
4G	.	.	.	.	4b-
2A	2r	.	4f	4cc	1cc
.	.	.	4g	4b-	.
[2F	2f	.	4a	4a	.
.	.	.	4b-	4g	.
=194	=194	=194	=194	=194	=194
2F]	4f	2f	2cc	2a	0r
.	4e	.	.	.	.
2B-	4d	4f	2b-	1f	.
.	4c	4e	.	.	.
4B-	2d	4d	2f	.	.
4A	.	4c	.	.	.
4G	[2B-	2d	2g	2b-	.
4F	.	.	.	.	.
=195	=195	=195	=195	=195	=195
2G	2B-]	1G	4g	4b-	0r
.	.	.	4f	4a	.
1C	2c	.	4e	4g	.
.	.	.	4d	4f	.
.	4c	2c	2e	2g	.
.	4B-	.	.	.	.
[2F	4A	4c	2f	2a	.
.	4G	4B-	.	.	.
=196	=196	=196	=196	=196	=196
4F]	2A	4A	2c	2a	2r
4E	.	4G	.	.	.
4D	1F	1A	2d	2a	2ff
4C	.	.	.	.	.
2D	.	.	4d	[1f	4ff
.	.	.	4c	.	4ee
2D	2F	2A	4d	.	4dd
.	.	.	4e	.	4cc
=197	=197	=197	=197	=197	=197
1BB-	2B-	2d	2f	1f]	2dd
.	4B-	2d	2d	.	1b-
.	4A	.	.	.	.
2.E-	4G	1B-	2e-	[1g	.
.	4F	.	.	.	.
.	2G	.	2B-	.	2ee-
4D	.	.	.	.	.
=198	=198	=198	=198	=198	=198
1C	1c	2.e-	2r	1g]	4ee-
.	.	.	.	.	4dd
.	.	.	1c	.	4cc
.	.	4d	.	.	4b-
2.F	2A	4c	.	2.a	2cc
.	.	4B-	.	.	.
.	[2A	2c	[2f	.	2cc
4E	.	.	.	4g	.
=199	=199	=199	=199	=199	=199
4D	2A]	2d	2f]	4f	2.ff
4C	.	.	.	4e	.
2D	2.d	2A	2d	2.f	.
.	.	.	.	.	4ee
[1BB-	.	2B-	[1f	.	2dd
.	4c	.	.	4e	.
.	4B-	2B-	.	4d	2dd
.	4A	.	.	4c	.
=200	=200	=200	=200	=200	=200
1BB-]	1B-	2F	2f]	1d	1dd
.	.	2F	2f	.	.
[1C	2G	1c	2e	2g	[1cc
.	2A	.	2f	[2f	.
=201	=201	=201	=201	=201	=201
1C]	1G	1c	1g	2f]	1cc]
.	.	.	.	2e	.
[1F	[1F	[1c	[1a	[1f	[1cc
=202	=202	=202	=202	=202	=202
1F]	1F]	1c]	1a]	1f]	1cc]
==	==	==	==	==	==
*-	*-	*-	*-	*-	*-
!!!CDT: 1525/^1526/-1594/2/2
!!!OCY: Italia
!!!AGN: Mass (Parody)
!!!AST: renaissance, vocal
!!!ASW: Motet 1569 (Palestrina)
!!!PWK: Masses, Book 8
!!!RNB: Cadence finals: C
!!!YOR: Le Opere Complete, v. 24, p. 117
!!!YOO: Rome, Italy: Fratelli Scalera
!!!END: 1992//
!!!EED: John Miller
!!!YEC: Copyright 2000, John Miller
!!!YEN: United States of America
!!!YEM: Rights to all derivative electronic formats reserved.
!!!YEM: Refer to licensing agreement for further details.
!!!YEM: This file must be accompanied by the licensing agreement.
!!!YEM: A copy of the licensing agreement may be found at http://www.music-cog.ohio-state.edu/HumdrumDatabases/Palestrina/license.txt
!!!EMD: converted to Humdrum by Bret Aarden
